packages/icons/src/lib/svgs/telegram.svg

<svg
        aria-hidden="true"
        data-testid="test-icon"
        fill="none"
        
        viewBox="0 0 24 24"
        
        xmlns="http://www.w3.org/2000/svg"
        
    >
        <title>telegram icon</title>

        <path
            fill="currentColor"
            d="M 20.572266 3.0117188 C 20.239891 2.9764687 19.878625 3.028375 19.515625 3.171875 C 19.065625 3.348875 12.014406 6.3150313 5.4414062 9.0820312 L 3.2695312 9.9960938 C 2.4285313 10.337094 2.0039062 10.891672 2.0039062 11.638672 C 2.0039062 12.161672 2.22525 12.871063 3.28125 13.289062 L 6.9472656 14.757812 C 7.2642656 15.708813 8.0005469 17.916906 8.1855469 18.503906 C 8.2955469 18.851906 8.5733906 19.728594 9.2753906 19.933594 C 9.4193906 19.982594 9.5696563 20.007813 9.7226562 20.007812 C 10.165656 20.007812 10.484625 19.801641 10.640625 19.681641 L 12.970703 17.710938 L 15.800781 20.328125 C 15.909781 20.439125 16.486719 21 17.261719 21 C 18.228719 21 18.962234 20.195016 19.115234 19.416016 C 19.198234 18.989016 21.927734 5.2870625 21.927734 5.2890625 C 22.172734 4.1900625 21.732219 3.6199531 21.449219 3.3769531 C 21.206719 3.1694531 20.904641 3.0469688 20.572266 3.0117188 z M 19.910156 5.171875 C 19.533156 7.061875 17.478016 17.378234 17.166016 18.865234 L 13.029297 15.039062 L 10.222656 17.416016 L 11 14.375 C 11 14.375 16.362547 8.9468594 16.685547 8.6308594 C 16.945547 8.3778594 17 8.2891719 17 8.2011719 C 17 8.0841719 16.939781 8 16.800781 8 C 16.675781 8 16.506016 8.1197812 16.416016 8.1757812 C 15.272669 8.8885973 10.404094 11.662239 8.0078125 13.025391 L 4.53125 11.636719 L 6.21875 10.927734 C 10.51775 9.1177344 18.174156 5.893875 19.910156 5.171875 z"
        />
    </svg>

<svg aria-hidden="true" data-testid="test-icon" fill="currentColor" viewBox="0 0 24 24" xmlns="http://www.w3.org/2000/svg"><path d="M20.572 3.012a2.24 2.24 0 00-1.056.16c-.45.177-7.502 3.143-14.075 5.91l-2.171.914c-.841.341-1.266.896-1.266 1.643 0 .523.221 1.232 1.277 1.65l3.666 1.469c.317.95 1.054 3.159 1.239 3.746.11.348.387 1.225 1.09 1.43.143.049.294.074.447.074.443 0 .762-.206.918-.326l2.33-1.971 2.83 2.617c.109.111.686.672 1.46.672.968 0 1.701-.805 1.854-1.584.083-.427 2.813-14.129 2.813-14.127.245-1.099-.196-1.669-.479-1.912a1.59 1.59 0 00-.877-.365zm-.662 2.16c-.377 1.89-2.432 12.206-2.744 13.693l-4.137-3.826-2.806 2.377.777-3.041s5.363-5.428 5.686-5.744c.26-.253.314-.342.314-.43 0-.117-.06-.201-.2-.201-.124 0-.294.12-.384.176-1.143.713-6.012 3.486-8.408 4.85l-3.477-1.39 1.688-.708c4.299-1.81 11.955-5.034 13.691-5.756z"/></svg>
